X:179
T:Chelsea Reach
C:John Playford, 1657.
M:6/8
R:Jig
L:1/8
S:Colin Hume's website,  colinhume.com  - chords can also be printed below the stave.
Q:3/8=106
K:F
%%center Play AABBBB, AABB, AABB.
P:A
V:1
%%MIDI program 21     Accordion
%%MIDI chordprog 23   Tango Accordion
%%MIDI bassprog 32    Acoustic Bass
%%MIDI control 10 0  Left speaker
|: c | "F"A>GF "C7"G2E | "F"F2F F2f | "Bb"def "Gm"def | "C"g2e c2c |
"F"ABc "F7"ABc | "Bb"Bcd "Gm"d>cB | "F"A>GF "C7"G2e | "F"f2F F2 :|
V:2
%%MIDI program 71     Clarinet
%%MIDI control 10 127   Right speaker
|: z | z3 z2c | A>GD ABc | B2A G2F | E>FG EDC |
F2c f2_e | dcB B>AG | F2c B>AG | A2FF2 :|
P:B
V:1
|: f | "F"f>gf "Bb"d>cd | "C"d>ed "F"c>BA | "Dm"A>Bc "G7"cd=B | "C"c2c "C7"c2c |
"F"AGA "Bb"BAB | "C"GAB "F"cBc | "Bb"def "C7"fge | "F"f2F F2 :|
V:2
|: z | A3 B3 | G3 A3 | D2F G2F | E>FG EDC |\
FEF GFG | EFG AGA | B2A G3 | A2F F2 :|

